assets/dist/images/capterra/personalize-emails-to-improve-customer-engagement-1.svg

<svg xmlns="http://www.w3.org/2000/svg" xmlns:xlink="http://www.w3.org/1999/xlink" width="312" height="412" viewBox="0 0 312 412">
  <defs>
    <path id="personalize-emails-to-improve-customer-engagement-1-b" d="M12.819426,-5.17920154e-16 L267.180574,5.17920154e-16 C271.638168,-3.00926524e-16 273.254599,0.464128056 274.884229,1.33566352 C276.513858,2.20719898 277.792801,3.48614185 278.664336,5.11577148 C279.535872,6.74540111 280,8.3618323 280,12.819426 L280,367.180574 C280,371.638168 279.535872,373.254599 278.664336,374.884229 C277.792801,376.513858 276.513858,377.792801 274.884229,378.664336 C273.254599,379.535872 271.638168,380 267.180574,380 L12.819426,380 C8.3618323,380 6.74540111,379.535872 5.11577148,378.664336 C3.48614185,377.792801 2.20719898,376.513858 1.33566352,374.884229 C0.464128056,373.254599 2.00617683e-16,371.638168 -3.45280103e-16,367.180574 L3.45280103e-16,12.819426 C-2.00617683e-16,8.3618323 0.464128056,6.74540111 1.33566352,5.11577148 C2.20719898,3.48614185 3.48614185,2.20719898 5.11577148,1.33566352 C6.74540111,0.464128056 8.3618323,3.00926524e-16 12.819426,-5.17920154e-16 Z"/>
    <filter id="personalize-emails-to-improve-customer-engagement-1-a" width="118.9%" height="113.9%" x="-9.5%" y="-5.9%" filterUnits="objectBoundingBox">
      <feMorphology in="SourceAlpha" operator="dilate" radius=".5" result="shadowSpreadOuter1"/>
      <feOffset dy="4" in="shadowSpreadOuter1" result="shadowOffsetOuter1"/>
      <feGaussianBlur in="shadowOffsetOuter1" result="shadowBlurOuter1" stdDeviation="8"/>
      <feComposite in="shadowBlurOuter1" in2="SourceAlpha" operator="out" result="shadowBlurOuter1"/>
      <feColorMatrix in="shadowBlurOuter1" values="0 0 0 0 0   0 0 0 0 0   0 0 0 0 0  0 0 0 0.12 0"/>
    </filter>
  </defs>
  <g fill="none" fill-rule="evenodd" transform="translate(16 12)">
    <use fill="#000" filter="url(#personalize-emails-to-improve-customer-engagement-1-a)" xlink:href="#personalize-emails-to-improve-customer-engagement-1-b"/>
    <use fill="#FFF" stroke="#8D8D8D" stroke-opacity=".24" xlink:href="#personalize-emails-to-improve-customer-engagement-1-b"/>
    <path fill="#F4F4F4" d="M27,24 L137,24 C138.656854,24 140,25.3431458 140,27 L140,27 C140,28.6568542 138.656854,30 137,30 L27,30 C25.3431458,30 24,28.6568542 24,27 L24,27 C24,25.3431458 25.3431458,24 27,24 Z"/>
    <rect width="232" height="1" x="24" y="90" fill="#D8D8D8"/>
    <path fill="#F4F4F4" d="M193 24L253 24C254.656854 24 256 25.3431458 256 27L256 27C256 28.6568542 254.656854 30 253 30L193 30C191.343146 30 190 28.6568542 190 27L190 27C190 25.3431458 191.343146 24 193 24zM27 42L111 42C112.656854 42 114 43.3431458 114 45L114 45C114 46.6568542 112.656854 48 111 48L27 48C25.3431458 48 24 46.6568542 24 45L24 45C24 43.3431458 25.3431458 42 27 42zM27 60L101 60C102.656854 60 104 61.3431458 104 63L104 63C104 64.6568542 102.656854 66 101 66L27 66C25.3431458 66 24 64.6568542 24 63L24 63C24 61.3431458 25.3431458 60 27 60zM115 60L133 60C134.656854 60 136 61.3431458 136 63L136 63C136 64.6568542 134.656854 66 133 66L115 66C113.343146 66 112 64.6568542 112 63L112 63C112 61.3431458 113.343146 60 115 60z"/>
    <path fill="#384254" fill-rule="nonzero" d="M33.128,129 L31.49,129 L31.49,124.912 L26.632,124.912 L26.632,129 L24.994,129 L24.994,119.662 L26.632,119.662 L26.632,123.47 L31.49,123.47 L31.49,119.662 L33.128,119.662 L33.128,129 Z M35.816,121.412 C35.312,121.412 34.906,121.006 34.906,120.502 C34.906,119.998 35.312,119.592 35.816,119.592 C36.32,119.592 36.726,119.998 36.726,120.502 C36.726,121.006 36.32,121.412 35.816,121.412 Z M36.544,129 L35.074,129 L35.074,122.238 L36.544,122.238 L36.544,129 Z M44.748,131.66 L43.894,131.66 C42.872,131.66 41.906,130.876 41.906,129.588 L41.906,126.97 C41.906,126.452 41.668,126.018 41.178,126.018 L41.178,125.15 C41.668,125.15 41.906,124.716 41.906,124.198 L41.906,121.594 C41.906,120.306 42.872,119.508 43.894,119.508 L44.748,119.508 L44.748,120.516 L43.894,120.516 C43.404,120.516 42.984,120.936 42.984,121.58 L42.984,124.338 C42.984,124.926 42.816,125.388 42.354,125.584 C42.816,125.78 42.984,126.242 42.984,126.83 L42.984,129.574 C42.984,130.204 43.404,130.652 43.894,130.652 L44.748,130.652 L44.748,131.66 Z M48.626,131.66 L47.772,131.66 C46.75,131.66 45.784,130.876 45.784,129.588 L45.784,126.97 C45.784,126.452 45.546,126.018 45.056,126.018 L45.056,125.15 C45.546,125.15 45.784,124.716 45.784,124.198 L45.784,121.594 C45.784,120.306 46.75,119.508 47.772,119.508 L48.626,119.508 L48.626,120.516 L47.772,120.516 C47.282,120.516 46.862,120.936 46.862,121.58 L46.862,124.338 C46.862,124.926 46.694,125.388 46.232,125.584 C46.694,125.78 46.862,126.242 46.862,126.83 L46.862,129.574 C46.862,130.204 47.282,130.652 47.772,130.652 L48.626,130.652 L48.626,131.66 Z M55.85,129 L54.38,129 L54.38,128.104 C53.904,128.636 53.064,129.168 52,129.168 C50.544,129.168 49.816,128.398 49.816,127.026 L49.816,122.238 L51.286,122.238 L51.286,126.48 C51.286,127.53 51.818,127.866 52.658,127.866 C53.4,127.866 54.044,127.432 54.38,126.984 L54.38,122.238 L55.85,122.238 L55.85,129 Z M60.078,129.168 C58.916,129.168 57.88,128.79 57.18,128.104 L57.852,127.054 C58.328,127.544 59.266,127.992 60.134,127.992 C61.016,127.992 61.478,127.628 61.478,127.096 C61.478,125.766 57.39,126.718 57.39,124.114 C57.39,123.008 58.342,122.07 60.05,122.07 C61.198,122.07 62.066,122.476 62.668,123.008 L62.052,124.044 C61.646,123.596 60.904,123.232 60.05,123.232 C59.28,123.232 58.804,123.596 58.804,124.072 C58.804,125.262 62.892,124.366 62.892,127.054 C62.892,128.258 61.898,129.168 60.078,129.168 Z M67.498,129.168 C65.454,129.168 63.956,127.754 63.956,125.612 C63.956,123.652 65.384,122.07 67.386,122.07 C69.416,122.07 70.704,123.61 70.704,125.738 L70.704,126.102 L65.496,126.102 C65.608,127.11 66.364,127.964 67.638,127.964 C68.31,127.964 69.08,127.698 69.57,127.208 L70.242,128.174 C69.556,128.818 68.562,129.168 67.498,129.168 Z M69.29,125.052 C69.248,124.254 68.702,123.274 67.372,123.274 C66.126,123.274 65.538,124.24 65.482,125.052 L69.29,125.052 Z M73.63,129 L72.16,129 L72.16,122.238 L73.63,122.238 L73.63,123.218 C74.148,122.574 74.96,122.07 75.828,122.07 L75.828,123.526 C75.702,123.498 75.562,123.484 75.38,123.484 C74.75,123.484 73.924,123.904 73.63,124.394 L73.63,129 Z M76.598,129.154 C76.066,129.154 75.618,128.692 75.618,128.16 C75.618,127.642 76.066,127.194 76.598,127.194 C77.13,127.194 77.578,127.642 77.578,128.16 C77.578,128.692 77.13,129.154 76.598,129.154 Z M85.32,129 L83.85,129 L83.85,124.772 C83.85,123.708 83.304,123.372 82.478,123.372 C81.736,123.372 81.092,123.82 80.742,124.268 L80.742,129 L79.272,129 L79.272,122.238 L80.742,122.238 L80.742,123.148 C81.19,122.616 82.072,122.07 83.136,122.07 C84.592,122.07 85.32,122.854 85.32,124.24 L85.32,129 Z M92.838,129 L91.368,129 L91.368,128.258 C90.864,128.846 90.066,129.168 89.17,129.168 C88.078,129.168 86.832,128.412 86.832,126.928 C86.832,125.36 88.064,124.716 89.17,124.716 C90.094,124.716 90.864,125.01 91.368,125.584 L91.368,124.576 C91.368,123.792 90.71,123.316 89.786,123.316 C89.03,123.316 88.358,123.596 87.784,124.184 L87.168,123.162 C87.952,122.406 88.932,122.07 90.01,122.07 C91.522,122.07 92.838,122.7 92.838,124.506 L92.838,129 Z M89.758,128.16 C90.388,128.16 91.018,127.922 91.368,127.46 L91.368,126.424 C91.018,125.962 90.388,125.724 89.758,125.724 C88.932,125.724 88.302,126.214 88.302,126.942 C88.302,127.684 88.932,128.16 89.758,128.16 Z M104.514,129 L103.044,129 L103.044,124.59 C103.044,123.862 102.722,123.372 101.924,123.372 C101.266,123.372 100.65,123.82 100.356,124.268 L100.356,129 L98.886,129 L98.886,124.59 C98.886,123.862 98.578,123.372 97.78,123.372 C97.122,123.372 96.52,123.834 96.212,124.268 L96.212,129 L94.742,129 L94.742,122.238 L96.212,122.238 L96.212,123.148 C96.506,122.742 97.388,122.07 98.424,122.07 C99.432,122.07 100.048,122.574 100.272,123.302 C100.65,122.7 101.546,122.07 102.568,122.07 C103.8,122.07 104.514,122.742 104.514,124.114 L104.514,129 Z M109.554,129.168 C107.51,129.168 106.012,127.754 106.012,125.612 C106.012,123.652 107.44,122.07 109.442,122.07 C111.472,122.07 112.76,123.61 112.76,125.738 L112.76,126.102 L107.552,126.102 C107.664,127.11 108.42,127.964 109.694,127.964 C110.366,127.964 111.136,127.698 111.626,127.208 L112.298,128.174 C111.612,128.818 110.618,129.168 109.554,129.168 Z M111.346,125.052 C111.304,124.254 110.758,123.274 109.428,123.274 C108.182,123.274 107.594,124.24 107.538,125.052 L111.346,125.052 Z M113.502,131.66 L113.502,130.652 L114.356,130.652 C114.846,130.652 115.266,130.204 115.266,129.574 L115.266,126.83 C115.266,126.242 115.434,125.78 115.896,125.584 C115.434,125.388 115.266,124.926 115.266,124.338 L115.266,121.58 C115.266,120.936 114.846,120.516 114.356,120.516 L113.502,120.516 L113.502,119.508 L114.356,119.508 C115.378,119.508 116.344,120.306 116.344,121.594 L116.344,124.198 C116.344,124.716 116.582,125.15 117.072,125.15 L117.072,126.018 C116.582,126.018 116.344,126.452 116.344,126.97 L116.344,129.588 C116.344,130.876 115.378,131.66 114.356,131.66 L113.502,131.66 Z M117.38,131.66 L117.38,130.652 L118.234,130.652 C118.724,130.652 119.144,130.204 119.144,129.574 L119.144,126.83 C119.144,126.242 119.312,125.78 119.774,125.584 C119.312,125.388 119.144,124.926 119.144,124.338 L119.144,121.58 C119.144,120.936 118.724,120.516 118.234,120.516 L117.38,120.516 L117.38,119.508 L118.234,119.508 C119.256,119.508 120.222,120.306 120.222,121.594 L120.222,124.198 C120.222,124.716 120.46,125.15 120.95,125.15 L120.95,126.018 C120.46,126.018 120.222,126.452 120.222,126.97 L120.222,129.588 C120.222,130.876 119.256,131.66 118.234,131.66 L117.38,131.66 Z M123.372,126.13 L122.098,126.13 L121.832,119.662 L123.624,119.662 L123.372,126.13 Z M122.742,129.14 C122.21,129.14 121.762,128.692 121.762,128.16 C121.762,127.642 122.21,127.194 122.742,127.194 C123.274,127.194 123.708,127.642 123.708,128.16 C123.708,128.692 123.274,129.14 122.742,129.14 Z"/>
    <path fill="#F4F4F4" d="M27 146L173 146C174.656854 146 176 147.343146 176 149L176 149C176 150.656854 174.656854 152 173 152L27 152C25.3431458 152 24 150.656854 24 149L24 149C24 147.343146 25.3431458 146 27 146zM27 164L243 164C244.656854 164 246 165.343146 246 167L246 167C246 168.656854 244.656854 170 243 170L27 170C25.3431458 170 24 168.656854 24 167L24 167C24 165.343146 25.3431458 164 27 164zM27 182L195 182C196.656854 182 198 183.343146 198 185L198 185C198 186.656854 196.656854 188 195 188L27 188C25.3431458 188 24 186.656854 24 185L24 185C24 183.343146 25.3431458 182 27 182zM27 200L61 200C62.6568542 200 64 201.343146 64 203L64 203C64 204.656854 62.6568542 206 61 206L27 206C25.3431458 206 24 204.656854 24 203L24 203C24 201.343146 25.3431458 200 27 200zM75 200L149 200C150.656854 200 152 201.343146 152 203L152 203C152 204.656854 150.656854 206 149 206L75 206C73.3431458 206 72 204.656854 72 203L72 203C72 201.343146 73.3431458 200 75 200zM27 218L173 218C174.656854 218 176 219.343146 176 221L176 221C176 222.656854 174.656854 224 173 224L27 224C25.3431458 224 24 222.656854 24 221L24 221C24 219.343146 25.3431458 218 27 218z"/>
    <g transform="translate(24 236)">
      <rect width="108" height="120" fill="#F4F4F4" rx="4"/>
      <rect width="108" height="120" x="124" fill="#F4F4F4" rx="4"/>
      <circle cx="54" cy="60" r="20" fill="#01B2D0"/>
      <path fill="#FFC111" d="M181.183282,48.3665631 L193.82918,73.6583592 C194.570147,75.1402947 193.969474,76.9423138 192.487539,77.6832816 C192.070973,77.8915647 191.611633,78 191.145898,78 L165.854102,78 C164.197248,78 162.854102,76.6568542 162.854102,75 C162.854102,74.5342647 162.962537,74.0749255 163.17082,73.6583592 L175.816718,48.3665631 C176.557686,46.8846277 178.359705,46.2839546 179.841641,47.0249224 C180.422223,47.3152135 180.89299,47.7859809 181.183282,48.3665631 Z"/>
    </g>
  </g>
</svg>

<svg xmlns="http://www.w3.org/2000/svg" xmlns:xlink="http://www.w3.org/1999/xlink" width="312" height="412" viewBox="0 0 312 412"><defs><filter id="a" width="118.9%" height="113.9%" x="-9.5%" y="-5.9%" filterUnits="objectBoundingBox"><feMorphology in="SourceAlpha" operator="dilate" radius=".5" result="shadowSpreadOuter1"/><feOffset dy="4" in="shadowSpreadOuter1" result="shadowOffsetOuter1"/><feGaussianBlur in="shadowOffsetOuter1" result="shadowBlurOuter1" stdDeviation="8"/><feComposite in="shadowBlurOuter1" in2="SourceAlpha" operator="out" result="shadowBlurOuter1"/><feColorMatrix in="shadowBlurOuter1" values="0 0 0 0 0 0 0 0 0 0 0 0 0 0 0 0 0 0 0.12 0"/></filter><path id="b" d="M12.82 0h254.36c4.458 0 6.075.464 7.704 1.336a9.086 9.086 0 013.78 3.78c.872 1.63 1.336 3.246 1.336 7.703v354.362c0 4.457-.464 6.074-1.336 7.703a9.086 9.086 0 01-3.78 3.78c-1.63.872-3.246 1.336-7.703 1.336H12.819c-4.457 0-6.074-.464-7.703-1.336a9.086 9.086 0 01-3.78-3.78C.464 373.254 0 371.638 0 367.181V12.819c0-4.457.464-6.074 1.336-7.703a9.086 9.086 0 013.78-3.78C6.746.464 8.362 0 12.819 0z"/></defs><g fill="none" fill-rule="evenodd" transform="translate(16 12)"><use fill="#000" filter="url(#a)" xlink:href="#b"/><use fill="#FFF" stroke="#8D8D8D" stroke-opacity=".24" xlink:href="#b"/><path fill="#F4F4F4" d="M27 24h110a3 3 0 010 6H27a3 3 0 010-6z"/><path fill="#D8D8D8" d="M24 90h232v1H24z"/><path fill="#F4F4F4" d="M193 24h60a3 3 0 010 6h-60a3 3 0 010-6zM27 42h84a3 3 0 010 6H27a3 3 0 010-6zm0 18h74a3 3 0 010 6H27a3 3 0 010-6zm88 0h18a3 3 0 010 6h-18a3 3 0 010-6z"/><path fill="#384254" fill-rule="nonzero" d="M33.128 129H31.49v-4.088h-4.858V129h-1.638v-9.338h1.638v3.808h4.858v-3.808h1.638V129zm2.688-7.588a.908.908 0 01-.91-.91c0-.504.406-.91.91-.91s.91.406.91.91-.406.91-.91.91zm.728 7.588h-1.47v-6.762h1.47V129zm8.204 2.66h-.854c-1.022 0-1.988-.784-1.988-2.072v-2.618c0-.518-.238-.952-.728-.952v-.868c.49 0 .728-.434.728-.952v-2.604c0-1.288.966-2.086 1.988-2.086h.854v1.008h-.854c-.49 0-.91.42-.91 1.064v2.758c0 .588-.168 1.05-.63 1.246.462.196.63.658.63 1.246v2.744c0 .63.42 1.078.91 1.078h.854v1.008zm3.878 0h-.854c-1.022 0-1.988-.784-1.988-2.072v-2.618c0-.518-.238-.952-.728-.952v-.868c.49 0 .728-.434.728-.952v-2.604c0-1.288.966-2.086 1.988-2.086h.854v1.008h-.854c-.49 0-.91.42-.91 1.064v2.758c0 .588-.168 1.05-.63 1.246.462.196.63.658.63 1.246v2.744c0 .63.42 1.078.91 1.078h.854v1.008zM55.85 129h-1.47v-.896a3.234 3.234 0 01-2.38 1.064c-1.456 0-2.184-.77-2.184-2.142v-4.788h1.47v4.242c0 1.05.532 1.386 1.372 1.386.742 0 1.386-.434 1.722-.882v-4.746h1.47V129zm4.228.168c-1.162 0-2.198-.378-2.898-1.064l.672-1.05c.476.49 1.414.938 2.282.938.882 0 1.344-.364 1.344-.896 0-1.33-4.088-.378-4.088-2.982 0-1.106.952-2.044 2.66-2.044 1.148 0 2.016.406 2.618.938l-.616 1.036c-.406-.448-1.148-.812-2.002-.812-.77 0-1.246.364-1.246.84 0 1.19 4.088.294 4.088 2.982 0 1.204-.994 2.114-2.814 2.114zm7.42 0c-2.044 0-3.542-1.414-3.542-3.556 0-1.96 1.428-3.542 3.43-3.542 2.03 0 3.318 1.54 3.318 3.668v.364h-5.208c.112 1.008.868 1.862 2.142 1.862.672 0 1.442-.266 1.932-.756l.672.966c-.686.644-1.68.994-2.744.994zm1.792-4.116c-.042-.798-.588-1.778-1.918-1.778-1.246 0-1.834.966-1.89 1.778h3.808zM73.63 129h-1.47v-6.762h1.47v.98c.518-.644 1.33-1.148 2.198-1.148v1.456a2.029 2.029 0 00-.448-.042c-.63 0-1.456.42-1.75.91V129zm2.968.154c-.532 0-.98-.462-.98-.994 0-.518.448-.966.98-.966s.98.448.98.966c0 .532-.448.994-.98.994zM85.32 129h-1.47v-4.228c0-1.064-.546-1.4-1.372-1.4-.742 0-1.386.448-1.736.896V129h-1.47v-6.762h1.47v.91c.448-.532 1.33-1.078 2.394-1.078 1.456 0 2.184.784 2.184 2.17V129zm7.518 0h-1.47v-.742c-.504.588-1.302.91-2.198.91-1.092 0-2.338-.756-2.338-2.24 0-1.568 1.232-2.212 2.338-2.212.924 0 1.694.294 2.198.868v-1.008c0-.784-.658-1.26-1.582-1.26-.756 0-1.428.28-2.002.868l-.616-1.022c.784-.756 1.764-1.092 2.842-1.092 1.512 0 2.828.63 2.828 2.436V129zm-3.08-.84c.63 0 1.26-.238 1.61-.7v-1.036c-.35-.462-.98-.7-1.61-.7-.826 0-1.456.49-1.456 1.218 0 .742.63 1.218 1.456 1.218zm14.756.84h-1.47v-4.41c0-.728-.322-1.218-1.12-1.218-.658 0-1.274.448-1.568.896V129h-1.47v-4.41c0-.728-.308-1.218-1.106-1.218-.658 0-1.26.462-1.568.896V129h-1.47v-6.762h1.47v.91c.294-.406 1.176-1.078 2.212-1.078 1.008 0 1.624.504 1.848 1.232.378-.602 1.274-1.232 2.296-1.232 1.232 0 1.946.672 1.946 2.044V129zm5.04.168c-2.044 0-3.542-1.414-3.542-3.556 0-1.96 1.428-3.542 3.43-3.542 2.03 0 3.318 1.54 3.318 3.668v.364h-5.208c.112 1.008.868 1.862 2.142 1.862.672 0 1.442-.266 1.932-.756l.672.966c-.686.644-1.68.994-2.744.994zm1.792-4.116c-.042-.798-.588-1.778-1.918-1.778-1.246 0-1.834.966-1.89 1.778h3.808zm2.156 6.608v-1.008h.854c.49 0 .91-.448.91-1.078v-2.744c0-.588.168-1.05.63-1.246-.462-.196-.63-.658-.63-1.246v-2.758c0-.644-.42-1.064-.91-1.064h-.854v-1.008h.854c1.022 0 1.988.798 1.988 2.086v2.604c0 .518.238.952.728.952v.868c-.49 0-.728.434-.728.952v2.618c0 1.288-.966 2.072-1.988 2.072h-.854zm3.878 0v-1.008h.854c.49 0 .91-.448.91-1.078v-2.744c0-.588.168-1.05.63-1.246-.462-.196-.63-.658-.63-1.246v-2.758c0-.644-.42-1.064-.91-1.064h-.854v-1.008h.854c1.022 0 1.988.798 1.988 2.086v2.604c0 .518.238.952.728.952v.868c-.49 0-.728.434-.728.952v2.618c0 1.288-.966 2.072-1.988 2.072h-.854zm5.992-5.53h-1.274l-.266-6.468h1.792l-.252 6.468zm-.63 3.01a.992.992 0 01-.98-.98c0-.518.448-.966.98-.966s.966.448.966.966a.98.98 0 01-.966.98z"/><path fill="#F4F4F4" d="M27 146h146a3 3 0 010 6H27a3 3 0 010-6zm0 18h216a3 3 0 010 6H27a3 3 0 010-6zm0 18h168a3 3 0 010 6H27a3 3 0 010-6zm0 18h34a3 3 0 010 6H27a3 3 0 010-6zm48 0h74a3 3 0 010 6H75a3 3 0 010-6zm-48 18h146a3 3 0 010 6H27a3 3 0 010-6z"/><g transform="translate(24 236)"><rect width="108" height="120" fill="#F4F4F4" rx="4"/><rect width="108" height="120" x="124" fill="#F4F4F4" rx="4"/><circle cx="54" cy="60" r="20" fill="#01B2D0"/><path fill="#FFC111" d="M181.183 48.367l12.646 25.291A3 3 0 01191.146 78h-25.292a3 3 0 01-2.683-4.342l12.646-25.291a3 3 0 015.366 0z"/></g></g></svg>
